X:1
T:[ID 4-51r]
T:[ID 4-51r]
T:Bezeichnung standardisiert: Menuet [mit Trio] Menuet Con Trio In dieser Quelle auch als: Menuet
T:Urheber unbekannt Datum in der hier transkribierten schriftlichen Quelle: 1776 - 1791
C:Urheber unbekannt
C:Datum in der hier transkribierten schriftlichen Quelle: 1776 - 1791
%%score 1 2 3
L:1/8
M:3/4
K:F
V:1 treble 
V:2 treble 
V:3 treble nm="Secondo"
V:1
 c2 x4 | (fa)(fa)(fa) |{a} b4 ge | (fa)(fa)(fa) | g2 c2 c2 | (fa)(fa)(fa) | b4 ge | fgabge | %8
 (3:2:1f6 x2 :: ab x4 | c'4 d'c' | c'bbaab | c'4 d'c' | c'bba a2 | (fa)(fa)(fa) | b4 ge | fgabge | %17
 f4 x2 :|[M:3/4]"^Trio"!p! !fermata!f4 g2 | a3 b c'2 |{b} a3 b c'2 |{d'} c'b a2 g2 | f4 g2 | %23
 a3 b c'2 x6 | c'2 (c'b)(ba) |{a} g6 :: a2 (ag)(gf) | f4 z2 | b2 (ba)(ag) | g4 z2 | c'2 c'2 c'2 | %31
{^c'} d'3 =c' b2 | a3 b g2 | f4 z2 :| %34
V:2
 !fermata!x6 | x6 | x6 | x6 | x6 | x6 | x6 | x6 | x6 :: x6 | x6 | x6 | x6 | x6 | x6 | x6 | x6 | %17
 x6 :| x6 | x6 | x6 | x6 | x6 | x6 A2 (AG)(GF) | F4 z2 | B2 (BA)(AG) :: G4 z2 | c2 c2 c2 | %28
{^c} d3 c B2 | A3 B G2 | F4 z2 | x6 | x6 | x6 :| %34
V:3
 f2 x4 | (Ac)(Ac)(Ac) | (GB)(GB)(GB) | (Ac)(Ac)(Ac) | B2 e2 e2 | (Ac)(Ac)(Ac) | (GB)(GB)(GB) | %7
 ABcdBG | A4 x2 :: (fg) x4 | a4 ba | (ag)(gf) f2 | a2 a2 ba | (ag)(gf) f2 | (Ac)(Ac)(Ac) | %15
 (GB)(GB)(GB) | ABcdBG | A4 x2 :|[M:3/4]!p! A4 B2 | f3 g a2 |{g} f3 g a2 |{b} ag f2 c2 | A4 c2 | %23
 f3 g a2 x6 | a2 (ag)(gf) |{f} e6 :: c2 (cB)(BA) | FfcA F2 | g2 gffc | cGEG c2 | a2 a2 a2 | %31
{a} b3 a g2 | f3 g B2 | A6 :| %34

